svg/fluentui-system-icons/ic_fluent_settings_28_regular.svg

<svg width="28" height="28" viewBox="0 0 28 28" fill="none" xmlns="http://www.w3.org/2000/svg">
<path d="M14 9.5C11.5147 9.5 9.5 11.5147 9.5 14C9.5 16.4853 11.5147 18.5 14 18.5C15.3488 18.5 16.559 17.9066 17.3838 16.9666C18.0787 16.1745 18.5 15.1365 18.5 14C18.5 13.5401 18.431 13.0962 18.3028 12.6783C17.7382 10.838 16.0253 9.5 14 9.5ZM11 14C11 12.3431 12.3431 11 14 11C15.6569 11 17 12.3431 17 14C17 15.6569 15.6569 17 14 17C12.3431 17 11 15.6569 11 14ZM21.7093 22.3947L19.9818 21.6364C19.4876 21.4197 18.9071 21.4514 18.44 21.7219C17.9729 21.9923 17.675 22.4692 17.6157 23.0065L17.408 24.8855C17.3651 25.2729 17.084 25.5917 16.7055 25.6819C14.9263 26.106 13.0725 26.106 11.2933 25.6819C10.9148 25.5917 10.6336 25.2729 10.5908 24.8855L10.3834 23.0093C10.3225 22.473 10.0112 21.9976 9.54452 21.728C9.07783 21.4585 8.51117 21.4269 8.01859 21.6424L6.29071 22.4009C5.93281 22.558 5.51493 22.4718 5.24806 22.1858C4.00474 20.8536 3.07924 19.2561 2.54122 17.5136C2.42533 17.1383 2.55922 16.7307 2.8749 16.4976L4.40219 15.3703C4.83721 15.05 5.09414 14.5415 5.09414 14.0006C5.09414 13.4597 4.83721 12.9512 4.40162 12.6305L2.87529 11.5051C2.55914 11.272 2.42513 10.8638 2.54142 10.4881C3.08038 8.74728 4.00637 7.15157 5.24971 5.82108C5.51684 5.53522 5.93492 5.44935 6.29276 5.60685L8.01296 6.36398C8.50793 6.58162 9.07696 6.54875 9.54617 6.27409C10.0133 6.00258 10.3244 5.52521 10.3844 4.98787L10.5933 3.11011C10.637 2.71797 10.9245 2.39697 11.3089 2.31131C12.19 2.11498 13.0891 2.01065 14.0131 2C14.9147 2.01041 15.8128 2.11478 16.6928 2.31143C17.077 2.39728 17.3643 2.71817 17.4079 3.11011L17.617 4.98931C17.7116 5.85214 18.4387 6.50566 19.3055 6.50657C19.5385 6.50694 19.769 6.45832 19.9843 6.36288L21.7048 5.60562C22.0626 5.44812 22.4807 5.53399 22.7478 5.81984C23.9912 7.15034 24.9172 8.74605 25.4561 10.4869C25.5723 10.8623 25.4386 11.2702 25.1228 11.5034L23.5978 12.6297C23.1628 12.9499 22.9 13.4585 22.9 13.9994C22.9 14.5402 23.1628 15.0488 23.5988 15.3697L25.1251 16.4964C25.441 16.7296 25.5748 17.1376 25.4586 17.513C24.9198 19.2536 23.9944 20.8491 22.7517 22.1799C22.4849 22.4657 22.0671 22.5518 21.7093 22.3947ZM16.263 22.1965C16.4982 21.4684 16.9889 20.8288 17.6884 20.4238C18.5702 19.9132 19.6536 19.8546 20.5841 20.2626L21.9281 20.8526C22.791 19.8537 23.4593 18.7013 23.8981 17.4551L22.7095 16.5777L22.7086 16.577C21.898 15.9799 21.4 15.0276 21.4 13.9994C21.4 12.9718 21.8974 12.0195 22.7073 11.4227L22.7085 11.4217L23.8957 10.545C23.4567 9.29874 22.7881 8.1463 21.9248 7.14764L20.5922 7.73419L20.5899 7.73521C20.1844 7.91457 19.7472 8.00716 19.3039 8.00657C17.6715 8.00447 16.3046 6.77425 16.1261 5.15459L16.1259 5.15285L15.9635 3.69298C15.3202 3.57322 14.6677 3.50866 14.013 3.50011C13.3389 3.50885 12.6821 3.57361 12.0377 3.69322L11.8751 5.15446C11.7625 6.16266 11.1793 7.05902 10.3019 7.5698C9.41937 8.08554 8.34453 8.14837 7.40869 7.73688L6.07273 7.14887C5.20949 8.14745 4.54092 9.29977 4.10196 10.5459L5.29181 11.4232C6.11115 12.0268 6.59414 12.9836 6.59414 14.0006C6.59414 15.0172 6.11142 15.9742 5.29237 16.5776L4.10161 17.4565C4.54002 18.7044 5.2085 19.8584 6.07205 20.8587L7.41742 20.2681C8.34745 19.8613 9.41573 19.9214 10.2947 20.4291C11.174 20.9369 11.7593 21.8319 11.8738 22.84L11.8744 22.8445L12.0362 24.3087C13.3326 24.5638 14.6662 24.5638 15.9626 24.3087L16.1247 22.8417C16.1491 22.6217 16.1955 22.4054 16.263 22.1965Z" fill="#212121"/>
</svg>

<svg xmlns="http://www.w3.org/2000/svg" width="28" height="28"><path d="M14 9.5a4.5 4.5 0 1 0 0 9 4.5 4.5 0 0 0 0-9ZM11 14a3 3 0 1 1 6 0 3 3 0 0 1-6 0Zm10.71 8.395-1.728-.759a1.72 1.72 0 0 0-1.542.086c-.467.27-.765.747-.824 1.284l-.208 1.88a.923.923 0 0 1-.703.796 11.67 11.67 0 0 1-5.412 0 .923.923 0 0 1-.702-.796l-.208-1.877a1.701 1.701 0 0 0-.838-1.281 1.694 1.694 0 0 0-1.526-.086l-1.728.759a.92.92 0 0 1-1.043-.215 12.064 12.064 0 0 1-2.707-4.672.924.924 0 0 1 .334-1.016l1.527-1.128a1.7 1.7 0 0 0 0-2.74l-1.527-1.125a.924.924 0 0 1-.334-1.017A12.059 12.059 0 0 1 5.25 5.821a.92.92 0 0 1 1.043-.214l1.72.757a1.707 1.707 0 0 0 2.371-1.376l.21-1.878a.923.923 0 0 1 .715-.799c.881-.196 1.78-.3 2.704-.311.902.01 1.8.115 2.68.311a.922.922 0 0 1 .715.8l.209 1.878a1.701 1.701 0 0 0 1.688 1.518c.233 0 .464-.049.68-.144l1.72-.757a.92.92 0 0 1 1.043.214 12.057 12.057 0 0 1 2.708 4.667.924.924 0 0 1-.333 1.016l-1.525 1.127c-.435.32-.698.829-.698 1.37 0 .54.263 1.049.699 1.37l1.526 1.126c.316.234.45.642.334 1.017a12.065 12.065 0 0 1-2.707 4.667.92.92 0 0 1-1.043.215Zm-5.447-.198a3.162 3.162 0 0 1 1.425-1.773 3.22 3.22 0 0 1 2.896-.161l1.344.59a10.565 10.565 0 0 0 1.97-3.398l-1.189-.877v-.001a3.207 3.207 0 0 1-1.309-2.578c0-1.027.497-1.98 1.307-2.576l.002-.001 1.187-.877a10.56 10.56 0 0 0-1.971-3.397l-1.333.586-.002.001c-.406.18-.843.272-1.286.272a3.202 3.202 0 0 1-3.178-2.852v-.002l-.163-1.46a11.476 11.476 0 0 0-1.95-.193 11.71 11.71 0 0 0-1.975.193l-.163 1.461A3.207 3.207 0 0 1 7.41 7.737l-1.336-.588a10.558 10.558 0 0 0-1.971 3.397l1.19.877a3.201 3.201 0 0 1 0 5.155l-1.19.878a10.565 10.565 0 0 0 1.97 3.403l1.345-.59a3.194 3.194 0 0 1 2.878.16 3.2 3.2 0 0 1 1.579 2.411v.005l.162 1.464c1.297.255 2.63.255 3.927 0l.162-1.467c.024-.22.07-.437.138-.645Z"/></svg>
